assets/discord-badge.svg

<svg width="107" height="28" viewBox="0 0 107 28" fill="none" xmlns="http://www.w3.org/2000/svg">
<g clip-path="url(#clip0_115_39)">
<path d="M106.75 0H0V28H106.75V0Z" fill="#21262D"/>
<path d="M47.9307 14.3721C47.9307 15.0492 47.776 15.6562 47.4668 16.1934C47.1576 16.7272 46.7669 17.1374 46.2949 17.4238C45.9401 17.6387 45.5511 17.7884 45.1279 17.873C44.7048 17.9577 44.2035 18 43.624 18H41.0605V10.7295H43.6973C44.2897 10.7295 44.8008 10.7799 45.2305 10.8809C45.6602 10.9785 46.0215 11.1185 46.3145 11.3008C46.8158 11.6068 47.2096 12.0202 47.4961 12.541C47.7858 13.0586 47.9307 13.6689 47.9307 14.3721ZM45.9922 14.3574C45.9922 13.8789 45.9043 13.4704 45.7285 13.1318C45.556 12.79 45.2809 12.5231 44.9033 12.3311C44.7113 12.2367 44.5143 12.1732 44.3125 12.1406C44.1139 12.1048 43.8128 12.0869 43.4092 12.0869H42.9355V16.6377H43.4092C43.8551 16.6377 44.1823 16.6182 44.3906 16.5791C44.599 16.5368 44.8024 16.4619 45.001 16.3545C45.3428 16.1592 45.5934 15.8988 45.7529 15.5732C45.9124 15.2445 45.9922 14.8392 45.9922 14.3574ZM53.292 18H49.0342V16.7109H50.2256V12.0186H49.0342V10.7295H53.292V12.0186H52.1006V16.7109H53.292V18ZM60.6406 15.7148C60.6406 16.431 60.3363 17.0137 59.7275 17.4629C59.1221 17.9089 58.2985 18.1318 57.2568 18.1318C56.6546 18.1318 56.1289 18.0798 55.6797 17.9756C55.2337 17.8682 54.8154 17.7331 54.4248 17.5703V15.8271H54.6299C55.0173 16.1364 55.4502 16.374 55.9287 16.54C56.4105 16.7061 56.8727 16.7891 57.3154 16.7891C57.4294 16.7891 57.5791 16.7793 57.7646 16.7598C57.9502 16.7402 58.1016 16.7077 58.2188 16.6621C58.362 16.6035 58.4792 16.5303 58.5703 16.4424C58.6647 16.3545 58.7119 16.2243 58.7119 16.0518C58.7119 15.8923 58.6436 15.7555 58.5068 15.6416C58.3734 15.5244 58.1764 15.4349 57.916 15.373C57.6426 15.3079 57.3529 15.2477 57.0469 15.1924C56.7441 15.1338 56.4593 15.0605 56.1924 14.9727C55.5804 14.7741 55.1393 14.5055 54.8691 14.167C54.6022 13.8252 54.4688 13.402 54.4688 12.8975C54.4688 12.2204 54.7715 11.6686 55.377 11.2422C55.9857 10.8125 56.7669 10.5977 57.7207 10.5977C58.1992 10.5977 58.6712 10.6449 59.1367 10.7393C59.6055 10.8304 60.0107 10.946 60.3525 11.0859V12.7607H60.1523C59.8594 12.5264 59.4997 12.3311 59.0732 12.1748C58.6501 12.0153 58.2171 11.9355 57.7744 11.9355C57.6182 11.9355 57.4619 11.9469 57.3057 11.9697C57.1527 11.9893 57.0046 12.0283 56.8613 12.0869C56.7344 12.1357 56.6253 12.2106 56.5342 12.3115C56.443 12.4092 56.3975 12.5215 56.3975 12.6484C56.3975 12.8405 56.4707 12.9886 56.6172 13.0928C56.7637 13.1937 57.0404 13.2865 57.4473 13.3711C57.7142 13.4264 57.9697 13.4801 58.2139 13.5322C58.4613 13.5843 58.7266 13.6559 59.0098 13.7471C59.5664 13.9294 59.9766 14.1784 60.2402 14.4941C60.5072 14.8066 60.6406 15.2135 60.6406 15.7148ZM65.2158 18.1416C64.6755 18.1416 64.1758 18.0618 63.7168 17.9023C63.2611 17.7428 62.8688 17.5052 62.54 17.1895C62.2113 16.8737 61.9557 16.4798 61.7734 16.0078C61.5944 15.5358 61.5049 14.9906 61.5049 14.3721C61.5049 13.7959 61.5911 13.2734 61.7637 12.8047C61.9362 12.3359 62.1868 11.9339 62.5156 11.5986C62.8314 11.2764 63.222 11.0273 63.6875 10.8516C64.1562 10.6758 64.6673 10.5879 65.2207 10.5879C65.5267 10.5879 65.8018 10.6058 66.0459 10.6416C66.2933 10.6742 66.5212 10.7181 66.7295 10.7734C66.9476 10.8353 67.1445 10.9053 67.3203 10.9834C67.4993 11.0583 67.6556 11.1283 67.7891 11.1934V12.9561H67.5742C67.4831 12.8779 67.3675 12.7852 67.2275 12.6777C67.0908 12.5703 66.9346 12.4645 66.7588 12.3604C66.5798 12.2562 66.3861 12.1683 66.1777 12.0967C65.9694 12.0251 65.7464 11.9893 65.5088 11.9893C65.2451 11.9893 64.9945 12.0316 64.7568 12.1162C64.5192 12.1976 64.2995 12.3343 64.0977 12.5264C63.9056 12.7119 63.7493 12.9577 63.6289 13.2637C63.5117 13.5697 63.4531 13.9408 63.4531 14.377C63.4531 14.8327 63.5166 15.2135 63.6436 15.5195C63.7738 15.8255 63.9365 16.0664 64.1318 16.2422C64.3304 16.4212 64.5518 16.5498 64.7959 16.6279C65.04 16.7028 65.2809 16.7402 65.5186 16.7402C65.7464 16.7402 65.971 16.7061 66.1924 16.6377C66.417 16.5693 66.6237 16.4766 66.8125 16.3594C66.972 16.265 67.1201 16.1641 67.2568 16.0566C67.3936 15.9492 67.5059 15.8564 67.5938 15.7783H67.7891V17.5166C67.6068 17.598 67.4326 17.6745 67.2666 17.7461C67.1006 17.8177 66.9264 17.8796 66.7441 17.9316C66.5065 18 66.2835 18.0521 66.0752 18.0879C65.8669 18.1237 65.5804 18.1416 65.2158 18.1416ZM76.2363 14.3672C76.2363 15.526 75.9043 16.4473 75.2402 17.1309C74.5762 17.8112 73.6582 18.1514 72.4863 18.1514C71.3177 18.1514 70.4014 17.8112 69.7373 17.1309C69.0732 16.4473 68.7412 15.526 68.7412 14.3672C68.7412 13.1986 69.0732 12.2757 69.7373 11.5986C70.4014 10.9183 71.3177 10.5781 72.4863 10.5781C73.6517 10.5781 74.568 10.9183 75.2354 11.5986C75.9027 12.2757 76.2363 13.1986 76.2363 14.3672ZM73.751 16.208C73.9333 15.9867 74.0684 15.7262 74.1562 15.4268C74.2441 15.124 74.2881 14.7692 74.2881 14.3623C74.2881 13.9261 74.2376 13.555 74.1367 13.249C74.0358 12.943 73.904 12.6956 73.7412 12.5068C73.5752 12.3115 73.3831 12.1699 73.165 12.082C72.9502 11.9941 72.7256 11.9502 72.4912 11.9502C72.2536 11.9502 72.029 11.9925 71.8174 12.0771C71.609 12.1618 71.417 12.3018 71.2412 12.4971C71.0785 12.6794 70.945 12.9316 70.8408 13.2539C70.7399 13.5729 70.6895 13.944 70.6895 14.3672C70.6895 14.8001 70.7383 15.1696 70.8359 15.4756C70.9368 15.7783 71.0687 16.0257 71.2314 16.2178C71.3942 16.4098 71.5846 16.5514 71.8027 16.6426C72.0208 16.7337 72.2503 16.7793 72.4912 16.7793C72.7321 16.7793 72.9616 16.7337 73.1797 16.6426C73.3978 16.5482 73.5882 16.4033 73.751 16.208ZM81.749 12.9561C81.749 12.7738 81.7116 12.6175 81.6367 12.4873C81.5618 12.3571 81.4333 12.2546 81.251 12.1797C81.124 12.1276 80.9759 12.0967 80.8066 12.0869C80.6374 12.0739 80.4404 12.0674 80.2158 12.0674H79.5371V14.0254H80.1133C80.4128 14.0254 80.6634 14.0107 80.8652 13.9814C81.0671 13.9521 81.2363 13.8854 81.373 13.7812C81.5033 13.6803 81.5977 13.5697 81.6562 13.4492C81.7181 13.3255 81.749 13.1611 81.749 12.9561ZM84.6738 18H82.3838L80.4014 15.334H79.5371V18H77.6719V10.7295H80.8164C81.2461 10.7295 81.6156 10.7539 81.9248 10.8027C82.234 10.8516 82.5238 10.9574 82.7939 11.1201C83.0674 11.2829 83.2839 11.4945 83.4434 11.7549C83.6061 12.012 83.6875 12.3359 83.6875 12.7266C83.6875 13.2637 83.5622 13.7015 83.3115 14.04C83.0641 14.3786 82.7093 14.6602 82.2471 14.8848L84.6738 18ZM92.3643 14.3721C92.3643 15.0492 92.2096 15.6562 91.9004 16.1934C91.5911 16.7272 91.2005 17.1374 90.7285 17.4238C90.3737 17.6387 89.9847 17.7884 89.5615 17.873C89.1383 17.9577 88.637 18 88.0576 18H85.4941V10.7295H88.1309C88.7233 10.7295 89.2344 10.7799 89.6641 10.8809C90.0938 10.9785 90.4551 11.1185 90.748 11.3008C91.2493 11.6068 91.6432 12.0202 91.9297 12.541C92.2194 13.0586 92.3643 13.6689 92.3643 14.3721ZM90.4258 14.3574C90.4258 13.8789 90.3379 13.4704 90.1621 13.1318C89.9896 12.79 89.7145 12.5231 89.3369 12.3311C89.1449 12.2367 88.9479 12.1732 88.7461 12.1406C88.5475 12.1048 88.2464 12.0869 87.8428 12.0869H87.3691V16.6377H87.8428C88.2887 16.6377 88.6159 16.6182 88.8242 16.5791C89.0326 16.5368 89.236 16.4619 89.4346 16.3545C89.7764 16.1592 90.027 15.8988 90.1865 15.5732C90.346 15.2445 90.4258 14.8392 90.4258 14.3574Z" fill="white"/>
<g clip-path="url(#clip1_115_39)">
<path d="M27.317 6.36973C25.761 5.65549 24.119 5.14617 22.4319 4.85453C22.4166 4.85167 22.4007 4.85372 22.3867 4.86038C22.3726 4.86704 22.3609 4.87797 22.3534 4.89163C22.1424 5.26693 21.9087 5.75643 21.7451 6.14113C19.9004 5.86493 18.0651 5.86493 16.2583 6.14113C16.0947 5.74783 15.8525 5.26693 15.6406 4.89163C15.6328 4.87828 15.6211 4.86762 15.6071 4.86102C15.5931 4.85442 15.5774 4.85219 15.5621 4.85463C13.8749 5.1456 12.2327 5.65487 10.6769 6.36963C10.6636 6.37532 10.6524 6.38499 10.6448 6.39733C7.5334 11.0457 6.681 15.5798 7.0992 20.0577C7.10039 20.0687 7.10376 20.0793 7.10912 20.0889C7.11448 20.0986 7.12171 20.107 7.1304 20.1138C9.1832 21.6214 11.1717 22.5366 13.1233 23.1432C13.1385 23.1478 13.1547 23.1475 13.1697 23.1426C13.1848 23.1377 13.198 23.1283 13.2075 23.1156C13.6691 22.4852 14.0806 21.8204 14.4335 21.1214C14.4384 21.1119 14.4411 21.1014 14.4416 21.0906C14.4421 21.0799 14.4404 21.0692 14.4364 21.0592C14.4325 21.0493 14.4265 21.0402 14.4188 21.0327C14.4112 21.0252 14.402 21.0194 14.3919 21.0157C13.7391 20.7681 13.1176 20.4662 12.5197 20.1234C12.5088 20.117 12.4996 20.108 12.493 20.0973C12.4864 20.0865 12.4826 20.0742 12.4818 20.0616C12.4811 20.049 12.4835 20.0364 12.4887 20.0249C12.494 20.0134 12.502 20.0034 12.5121 19.9957C12.6379 19.9014 12.7638 19.8034 12.8839 19.7043C12.8946 19.6955 12.9075 19.6899 12.9212 19.688C12.9349 19.6862 12.9489 19.6882 12.9615 19.6938C16.8893 21.4871 21.1415 21.4871 25.0229 19.6938C25.0355 19.6878 25.0496 19.6855 25.0635 19.6872C25.0774 19.6889 25.0906 19.6945 25.1014 19.7033C25.2216 19.8023 25.3474 19.9014 25.4742 19.9957C25.4843 20.0033 25.4924 20.0132 25.4977 20.0247C25.5031 20.0361 25.5055 20.0487 25.5049 20.0613C25.5042 20.0739 25.5005 20.0861 25.494 20.097C25.4875 20.1078 25.4784 20.1168 25.4676 20.1233C24.8695 20.4727 24.2429 20.7709 23.5946 21.0147C23.5845 21.0186 23.5754 21.0245 23.5678 21.0321C23.5602 21.0398 23.5542 21.0489 23.5504 21.059C23.5466 21.069 23.5449 21.0798 23.5455 21.0906C23.5461 21.1013 23.549 21.1119 23.5539 21.1214C23.9143 21.8194 24.3258 22.4842 24.7789 23.1146C24.7882 23.1276 24.8013 23.1374 24.8164 23.1425C24.8315 23.1477 24.8478 23.1479 24.8631 23.1432C26.8241 22.5365 28.8126 21.6213 30.8654 20.1138C30.8742 20.1074 30.8816 20.0991 30.887 20.0896C30.8924 20.0801 30.8957 20.0695 30.8967 20.0586C31.3971 14.8816 30.0585 10.3847 27.3482 6.39823C27.3416 6.38528 27.3305 6.37513 27.317 6.36963V6.36973ZM15.02 17.3311C13.8375 17.3311 12.8631 16.2454 12.8631 14.9121C12.8631 13.5789 13.8186 12.4932 15.0201 12.4932C16.2309 12.4932 17.1958 13.5884 17.1769 14.9122C17.1769 16.2454 16.2214 17.3311 15.02 17.3311V17.3311ZM22.9948 17.3311C21.8123 17.3311 20.8379 16.2454 20.8379 14.9121C20.8379 13.5789 21.7933 12.4932 22.9948 12.4932C24.2056 12.4932 25.1705 13.5884 25.1516 14.9122C25.1516 16.2454 24.2056 17.3311 22.9948 17.3311V17.3311Z" fill="white"/>
</g>
</g>
<defs>
<clipPath id="clip0_115_39">
<rect width="106.75" height="28" rx="4" fill="white"/>
</clipPath>
<clipPath id="clip1_115_39">
<rect width="24" height="24" fill="white" transform="translate(7 2)"/>
</clipPath>
</defs>
</svg>

<svg width="107" height="28" fill="none" xmlns="http://www.w3.org/2000/svg"><g clip-path="url(#a)"><path d="M106.75 0H0v28h106.75V0Z" fill="#21262D"/><path d="M47.93 14.372c0 .677-.154 1.284-.463 1.821-.31.534-.7.944-1.172 1.23a3.593 3.593 0 0 1-1.167.45 7.759 7.759 0 0 1-1.504.127H41.06v-7.27h2.637c.593 0 1.104.05 1.533.15.43.098.792.238 1.085.42.5.307.895.72 1.181 1.241.29.518.435 1.128.435 1.831Zm-1.938-.015c0-.478-.088-.887-.264-1.225a1.806 1.806 0 0 0-.825-.8 2.089 2.089 0 0 0-.59-.191 5.547 5.547 0 0 0-.904-.054h-.474v4.55h.474c.446 0 .773-.019.982-.058.208-.042.411-.117.61-.224.342-.196.592-.456.752-.782.16-.329.24-.734.24-1.216Zm7.3 3.643h-4.258v-1.29h1.192V12.02h-1.192v-1.29h4.258v1.29h-1.191v4.692h1.191V18Zm7.349-2.285c0 .716-.305 1.299-.913 1.748-.606.446-1.43.669-2.471.669a7.04 7.04 0 0 1-1.577-.156 8.321 8.321 0 0 1-1.255-.406v-1.743h.205c.387.31.82.547 1.299.713.481.166.944.25 1.386.25.114 0 .264-.01.45-.03.185-.02.337-.052.454-.098.143-.058.26-.132.351-.22.095-.087.142-.218.142-.39a.517.517 0 0 0-.205-.41c-.134-.118-.33-.207-.591-.269a16.178 16.178 0 0 0-.87-.18 6.975 6.975 0 0 1-.854-.22c-.612-.199-1.053-.468-1.323-.806-.267-.342-.4-.765-.4-1.27 0-.677.303-1.228.908-1.655.609-.43 1.39-.644 2.344-.644.478 0 .95.047 1.416.141.468.091.874.207 1.215.347v1.675h-.2a3.815 3.815 0 0 0-1.079-.586 3.654 3.654 0 0 0-1.299-.24c-.156 0-.312.012-.468.035a1.76 1.76 0 0 0-.445.117.842.842 0 0 0-.327.225.48.48 0 0 0-.136.336c0 .193.073.34.22.445.146.1.422.194.83.278l.766.161c.247.052.513.124.796.215.556.182.967.431 1.23.747.267.313.4.72.4 1.22Zm4.575 2.427c-.54 0-1.04-.08-1.5-.24a3.202 3.202 0 0 1-1.176-.713 3.219 3.219 0 0 1-.767-1.181c-.179-.472-.268-1.017-.268-1.636 0-.576.086-1.099.259-1.567a3.35 3.35 0 0 1 .752-1.206 3.192 3.192 0 0 1 1.172-.747c.468-.176.98-.264 1.533-.264.306 0 .58.018.825.054.247.032.475.076.683.131.219.062.415.132.591.21.18.075.336.145.47.21v1.763h-.216a8.405 8.405 0 0 0-.346-.278 4.33 4.33 0 0 0-.47-.318 3.252 3.252 0 0 0-.58-.263 2.226 2.226 0 0 0-1.42.02 1.8 1.8 0 0 0-.66.41 2.05 2.05 0 0 0-.47.737c-.116.306-.175.677-.175 1.113 0 .456.064.836.19 1.143.13.306.294.546.489.722.198.18.42.308.664.386.244.075.485.112.723.112.227 0 .452-.034.673-.102.225-.069.432-.161.62-.279.16-.094.308-.195.445-.302.137-.108.249-.2.337-.279h.195v1.739l-.522.23c-.166.07-.34.133-.523.185-.237.068-.46.12-.669.156a5.346 5.346 0 0 1-.86.054Zm11.02-3.775c0 1.159-.332 2.08-.996 2.764-.664.68-1.582 1.02-2.754 1.02-1.168 0-2.085-.34-2.749-1.02-.664-.684-.996-1.605-.996-2.764 0-1.168.332-2.091.996-2.768.664-.68 1.58-1.02 2.75-1.02 1.165 0 2.081.34 2.748 1.02.668.677 1.001 1.6 1.001 2.768Zm-2.485 1.841c.182-.221.317-.482.405-.781.088-.303.132-.658.132-1.065 0-.436-.05-.807-.151-1.113a2.16 2.16 0 0 0-.396-.742 1.477 1.477 0 0 0-.576-.425 1.762 1.762 0 0 0-.674-.132c-.237 0-.462.043-.674.127-.208.085-.4.225-.576.42-.162.182-.296.435-.4.757-.101.319-.151.69-.151 1.113 0 .433.048.803.146 1.109.1.302.233.55.395.742.163.192.354.333.572.425.218.09.447.136.688.136.241 0 .47-.045.689-.136a1.53 1.53 0 0 0 .571-.435Zm7.998-3.252a.925.925 0 0 0-.112-.469c-.075-.13-.204-.232-.386-.307a1.378 1.378 0 0 0-.444-.093 7.824 7.824 0 0 0-.591-.02h-.679v1.958h.576c.3 0 .55-.014.752-.044.202-.029.371-.096.508-.2.13-.1.225-.211.283-.332a1.11 1.11 0 0 0 .093-.493ZM84.674 18h-2.29L80.4 15.334h-.864V18h-1.865v-7.27h3.144c.43 0 .8.024 1.109.073.309.049.599.154.869.317.273.163.49.375.65.635.162.257.243.58.243.972 0 .537-.125.974-.376 1.313-.247.339-.602.62-1.064.845L84.674 18Zm7.69-3.628c0 .677-.154 1.284-.464 1.821-.309.534-.7.944-1.172 1.23a3.593 3.593 0 0 1-1.166.45 7.76 7.76 0 0 1-1.504.127h-2.564v-7.27h2.637c.592 0 1.103.05 1.533.15.43.098.791.238 1.084.42.501.307.895.72 1.182 1.241.29.518.434 1.128.434 1.831Zm-1.938-.015c0-.478-.088-.887-.264-1.225a1.806 1.806 0 0 0-.825-.8 2.089 2.089 0 0 0-.59-.191 5.547 5.547 0 0 0-.904-.054h-.474v4.55h.474c.446 0 .773-.019.981-.058.209-.042.412-.117.61-.224.342-.196.593-.456.752-.782.16-.329.24-.734.24-1.216Z" fill="#fff"/><g clip-path="url(#b)"><path d="M27.317 6.37a19.79 19.79 0 0 0-4.885-1.515.074.074 0 0 0-.079.037c-.21.375-.444.864-.608 1.25a18.27 18.27 0 0 0-5.487 0 12.64 12.64 0 0 0-.617-1.25.077.077 0 0 0-.079-.037c-1.687.29-3.33.8-4.885 1.515a.07.07 0 0 0-.032.027c-3.112 4.649-3.964 9.183-3.546 13.66a.082.082 0 0 0 .031.057 19.9 19.9 0 0 0 5.993 3.03.077.077 0 0 0 .085-.028c.461-.63.873-1.296 1.226-1.995a.075.075 0 0 0 .002-.062.076.076 0 0 0-.044-.043 13.107 13.107 0 0 1-1.872-.893.078.078 0 0 1-.038-.061.079.079 0 0 1 .03-.066 10.2 10.2 0 0 0 .372-.292.075.075 0 0 1 .077-.01c3.928 1.793 8.18 1.793 12.062 0a.074.074 0 0 1 .078.01c.12.098.246.197.373.292a.076.076 0 0 1 .03.065.078.078 0 0 1-.036.062c-.599.35-1.225.648-1.873.892a.077.077 0 0 0-.041.106c.36.698.772 1.363 1.225 1.994a.076.076 0 0 0 .084.028 19.839 19.839 0 0 0 6.002-3.03.077.077 0 0 0 .032-.054c.5-5.177-.838-9.674-3.549-13.66a.06.06 0 0 0-.031-.03ZM15.02 17.33c-1.182 0-2.157-1.086-2.157-2.419s.956-2.419 2.157-2.419c1.21 0 2.176 1.095 2.157 2.42 0 1.332-.956 2.418-2.157 2.418Zm7.975 0c-1.183 0-2.157-1.086-2.157-2.419s.955-2.419 2.157-2.419c1.21 0 2.175 1.095 2.157 2.42 0 1.332-.946 2.418-2.157 2.418Z" fill="#fff"/></g></g><defs><clipPath id="a"><rect width="106.75" height="28" rx="4" fill="#fff"/></clipPath><clipPath id="b"><path fill="#fff" transform="translate(7 2)" d="M0 0h24v24H0z"/></clipPath></defs></svg>
